src/public/img/algolia_grey.svg

<svg width="65" height="16" viewBox="0 0 65 16" fill="none" xmlns="http://www.w3.org/2000/svg">
<path d="M2.25132 -0.133301H14.0987C15.2647 -0.133301 16.2163 0.808699 16.2163 1.97337V13.7607C16.2163 14.9207 15.2694 15.8667 14.0987 15.8667H2.25132C1.08534 15.8667 0.133789 14.9254 0.133789 13.7607V1.96803C0.133789 0.808699 1.07997 -0.133301 2.25132 -0.133301Z" fill="#79849A"/>
<path d="M9.85083 3.43847V2.8898C9.85069 2.70567 9.77706 2.52913 9.64612 2.39899C9.51519 2.26885 9.33767 2.19577 9.15259 2.1958H7.52491C7.33982 2.19577 7.1623 2.26885 7.03137 2.39899C6.90043 2.52913 6.8268 2.70567 6.82666 2.8898V3.45313C6.82666 3.5158 6.88496 3.5598 6.94862 3.54513C7.40906 3.41287 7.88597 3.34599 8.36521 3.34647C8.8296 3.34647 9.28929 3.40913 9.73357 3.53047C9.79253 3.54513 9.85083 3.5018 9.85083 3.43847ZM5.38996 4.15647L5.11187 3.8798C5.04707 3.81529 4.97013 3.76412 4.88545 3.7292C4.80077 3.69429 4.71 3.67632 4.61833 3.67632C4.52667 3.67632 4.4359 3.69429 4.35122 3.7292C4.26654 3.76412 4.1896 3.81529 4.1248 3.8798L3.79243 4.2098C3.72746 4.27405 3.67589 4.35045 3.6407 4.4346C3.60552 4.51875 3.5874 4.60899 3.5874 4.70013C3.5874 4.79128 3.60552 4.88152 3.6407 4.96567C3.67589 5.04982 3.72746 5.12622 3.79243 5.19047L4.06583 5.46247C4.11006 5.5058 4.17372 5.4958 4.21259 5.45247C4.37389 5.23207 4.55199 5.02435 4.74532 4.83113C4.94027 4.63652 5.15094 4.45814 5.37522 4.2978C5.424 4.26847 5.42882 4.20047 5.38996 4.15647ZM8.36039 5.89847V8.2718C8.36039 8.3398 8.4341 8.38847 8.49709 8.35447L10.618 7.26247C10.6662 7.23847 10.681 7.1798 10.6568 7.1318C10.2172 6.36447 9.40106 5.84047 8.45823 5.80647C8.40931 5.80647 8.36039 5.84513 8.36039 5.89847ZM8.36039 11.6158C6.59199 11.6158 5.15529 10.1885 5.15529 8.4318C5.15529 6.67513 6.59199 5.24847 8.36039 5.24847C10.1295 5.24847 11.5656 6.67513 11.5656 8.4318C11.5656 10.1885 10.1343 11.6158 8.36039 11.6158ZM8.36039 3.90913C5.84884 3.90913 3.81173 5.93313 3.81173 8.4318C3.81173 10.9311 5.84884 12.9505 8.36039 12.9505C10.8719 12.9505 12.909 10.9265 12.909 8.42713C12.909 5.9278 10.8766 3.90913 8.36039 3.90913Z" fill="white"/>
<path d="M32.1934 12.5569C29.062 12.5715 29.062 10.0429 29.062 9.64021L29.0567 0.167544L30.967 -0.133789V9.28088C30.967 9.50954 30.967 10.9555 32.1933 10.9602V12.5569H32.1934ZM24.4497 11.0089C25.0359 11.0089 25.471 10.9749 25.7738 10.9169V8.98554C25.6226 8.94554 25.4691 8.91459 25.3142 8.89288C25.0943 8.86043 24.8723 8.84417 24.6499 8.84421C24.4395 8.84421 24.2244 8.85888 24.01 8.89288C23.7949 8.92221 23.5992 8.98021 23.4284 9.06288C23.2575 9.14554 23.1154 9.26221 23.0129 9.41221C22.9057 9.56288 22.8568 9.65021 22.8568 9.87821C22.8568 10.3242 23.0129 10.5822 23.2963 10.7515C23.5798 10.9215 23.9658 11.0089 24.4497 11.0089ZM24.2835 4.11754C24.9134 4.11754 25.446 4.19554 25.8762 4.35088C26.3059 4.50621 26.653 4.72421 26.9069 5.00088C27.1662 5.28221 27.3418 5.65621 27.4491 6.05421C27.5617 6.45221 27.6153 6.88888 27.6153 7.36888V12.2515C27.3225 12.3142 26.8774 12.3869 26.2818 12.4742C25.6859 12.5615 25.0166 12.6055 24.2734 12.6055C23.7802 12.6055 23.3258 12.5569 22.9204 12.4649C22.5096 12.3729 22.1632 12.2222 21.8697 12.0135C21.5815 11.8049 21.3571 11.5375 21.1909 11.2082C21.0294 10.8775 20.9463 10.4122 20.9463 9.92688C20.9463 9.46088 21.0388 9.16488 21.2204 8.84421C21.4053 8.52421 21.6546 8.26221 21.9675 8.05821C22.2852 7.85421 22.6463 7.70888 23.0618 7.62154C23.4773 7.53421 23.9122 7.49021 24.3611 7.49021C24.5715 7.49021 24.7913 7.50488 25.0259 7.52888C25.2557 7.55354 25.505 7.59754 25.769 7.66021V7.34954C25.769 7.13154 25.7442 6.92288 25.6906 6.72888C25.6391 6.53769 25.5455 6.3603 25.4165 6.20954C25.2845 6.05888 25.1143 5.94221 24.8992 5.86021C24.6841 5.77754 24.4101 5.71421 24.083 5.71421C23.6435 5.71421 23.2427 5.76754 22.8762 5.83088C22.5096 5.89354 22.2068 5.96688 21.9769 6.04888L21.7477 4.49154C21.987 4.40888 22.3435 4.32621 22.8031 4.24421C23.2622 4.15621 23.756 4.11754 24.2834 4.11754H24.2835ZM62.0117 10.9555C62.598 10.9555 63.0322 10.9215 63.3351 10.8629V8.93221C63.2279 8.90288 63.0765 8.86888 62.8761 8.83954C62.656 8.80711 62.4338 8.79084 62.2114 8.79088C62.0016 8.79088 61.7865 8.80554 61.5714 8.83954C61.357 8.86888 61.1613 8.92688 60.9904 9.00954C60.8189 9.09221 60.6775 9.20888 60.575 9.35888C60.4671 9.50954 60.4188 9.59688 60.4188 9.82488C60.4188 10.2709 60.575 10.5289 60.8584 10.6982C61.1466 10.8729 61.5279 10.9555 62.0117 10.9555ZM61.8502 4.06954C62.4801 4.06954 63.0127 4.14688 63.4429 4.30221C63.8724 4.45754 64.2195 4.67554 64.4735 4.95221C64.7275 5.22888 64.9084 5.60754 65.0156 6.00554C65.1282 6.40354 65.1818 6.84021 65.1818 7.32088V12.2029C64.889 12.2655 64.444 12.3382 63.8483 12.4262C63.2526 12.5135 62.5831 12.5569 61.84 12.5569C61.3468 12.5569 60.8925 12.5082 60.4872 12.4162C60.0764 12.3242 59.73 12.1735 59.4365 11.9649C59.1483 11.7562 58.9238 11.4889 58.7577 11.1595C58.5962 10.8295 58.5131 10.3635 58.5131 9.87821C58.5131 9.41221 58.6062 9.11621 58.7871 8.79554C58.9721 8.47554 59.2214 8.21354 59.5343 8.00954C59.8519 7.80621 60.2131 7.66021 60.6286 7.57288C61.0441 7.48554 61.479 7.44221 61.9286 7.44221C62.1383 7.44221 62.3581 7.45688 62.5927 7.48088C62.8272 7.50488 63.0718 7.54888 63.3351 7.61221V7.30154C63.3351 7.08288 63.311 6.87421 63.2574 6.68021C63.206 6.48897 63.1124 6.31154 62.9833 6.16088C62.8513 6.01021 62.6811 5.89354 62.466 5.81154C62.2508 5.72888 61.9768 5.66621 61.6498 5.66621C61.2102 5.66621 60.8095 5.71954 60.443 5.78221C60.0764 5.84554 59.7735 5.91821 59.5437 6.00088L59.3145 4.44288C59.5537 4.36021 59.9102 4.27821 60.3699 4.19554C60.8289 4.11288 61.3221 4.06954 61.8502 4.06954ZM56.1141 3.16688C56.7539 3.16688 57.2774 2.65221 57.2774 2.01621C57.2774 1.38088 56.7593 0.866211 56.1141 0.866211C55.4695 0.866211 54.9515 1.38088 54.9515 2.01621C54.9515 2.65221 55.4742 3.16688 56.1141 3.16688ZM57.0764 12.5569H55.1564V4.36488L57.0762 4.06421V12.5569H57.0764ZM53.7103 12.5569C50.5789 12.5715 50.5789 10.0429 50.5789 9.64021L50.5736 0.167544L52.484 -0.133789V9.28088C52.484 9.50954 52.484 10.9555 53.7103 10.9602V12.5569ZM47.5005 8.36421C47.5005 7.54354 47.3195 6.85954 46.9679 6.38421C46.6161 5.90354 46.1229 5.66621 45.4923 5.66621C44.8624 5.66621 44.3684 5.90354 44.0173 6.38421C43.6655 6.86421 43.4941 7.54354 43.4941 8.36421C43.4941 9.19421 43.6703 9.75154 44.0221 10.2322C44.3739 10.7175 44.8671 10.9555 45.4977 10.9555C46.1276 10.9555 46.6214 10.7129 46.9732 10.2322C47.3249 9.74688 47.5005 9.19421 47.5005 8.36421ZM49.4545 8.35954C49.4545 9.00021 49.362 9.48488 49.1712 10.0142C48.9809 10.5429 48.7121 10.9942 48.3657 11.3682C48.0186 11.7415 47.6031 12.0329 47.1145 12.2369C46.6261 12.4402 45.8735 12.5569 45.4975 12.5569C45.1209 12.5522 44.3738 12.4455 43.8899 12.2369C43.4061 12.0282 42.9907 11.7415 42.6442 11.3682C42.2971 10.9942 42.0285 10.5429 41.8329 10.0142C41.6377 9.48488 41.54 9.00021 41.54 8.35954C41.54 7.71888 41.6277 7.10221 41.8233 6.57821C42.019 6.05421 42.2924 5.60754 42.6442 5.23421C42.996 4.86021 43.4162 4.57354 43.8946 4.37021C44.3785 4.16621 44.9112 4.06954 45.4875 4.06954C46.0644 4.06954 46.5965 4.17088 47.085 4.37021C47.5742 4.57354 47.9945 4.86021 48.3362 5.23421C48.6825 5.60754 48.9514 6.05421 49.147 6.57821C49.3521 7.10221 49.4546 7.71888 49.4546 8.35954H49.4545ZM35.0762 8.35954C35.0762 9.15488 35.2518 10.0382 35.6036 10.4069C35.9554 10.7762 36.4096 10.9602 36.9672 10.9602C37.2701 10.9602 37.5583 10.9169 37.8269 10.8342C38.0956 10.7515 38.3101 10.6542 38.4817 10.5382V5.82621C38.345 5.79688 37.7732 5.68021 37.2205 5.66621C36.527 5.64621 35.9996 5.92821 35.6284 6.37888C35.2617 6.83088 35.0762 7.62154 35.0762 8.35954ZM40.3868 12.1055C40.3868 13.4015 40.0544 14.3475 39.3848 14.9495C38.7161 15.5509 37.6948 15.8522 36.3171 15.8522C35.8139 15.8522 34.7685 15.7549 33.9329 15.5709L34.2405 14.0662C34.9394 14.2115 35.8628 14.2509 36.3466 14.2509C37.1132 14.2509 37.6607 14.0955 37.9877 13.7849C38.3154 13.4742 38.4762 13.0135 38.4762 12.4015V12.0909C38.2859 12.1829 38.0366 12.2755 37.729 12.3729C37.4214 12.4649 37.0649 12.5135 36.6636 12.5135C36.1362 12.5135 35.6571 12.4309 35.2228 12.2655C34.7879 12.1009 34.4113 11.8582 34.1038 11.5375C33.7962 11.2175 33.5516 10.8149 33.3807 10.3342C33.2098 9.85354 33.1214 8.99488 33.1214 8.36421C33.1214 7.77221 33.2145 7.02954 33.3956 6.53421C33.5811 6.03954 33.8446 5.61221 34.2016 5.25821C34.5535 4.90421 34.9836 4.63221 35.4869 4.43288C35.9901 4.23421 36.5805 4.10821 37.2204 4.10821C37.8416 4.10821 38.4132 4.18554 38.9701 4.27821C39.5269 4.37021 40.0007 4.46688 40.3866 4.57354V12.1055H40.3868Z" fill="#79849A"/>
</svg>

<svg xmlns="http://www.w3.org/2000/svg" width="65" height="16" fill="none">
  <path fill="#79849A" d="M2.251-.133H14.1c1.166 0 2.117.942 2.117 2.106v11.788c0 1.16-.947 2.106-2.117 2.106H2.25A2.113 2.113 0 0 1 .134 13.76V1.968A2.11 2.11 0 0 1 2.25-.133Z"/>
  <path fill="#fff" d="M9.85 3.438V2.89a.693.693 0 0 0-.697-.694H7.525a.7.7 0 0 0-.698.694v.563c0 .063.058.107.122.092a5.136 5.136 0 0 1 2.785-.015.094.094 0 0 0 .117-.092Zm-4.46.718-.278-.276a.698.698 0 0 0-.987 0l-.333.33a.691.691 0 0 0 0 .98l.274.272c.044.044.108.034.147-.01a5.149 5.149 0 0 1 1.162-1.154c.049-.03.054-.098.015-.142Zm2.97 1.742v2.374c0 .068.074.116.137.082l2.121-1.092c.048-.024.063-.082.039-.13a2.64 2.64 0 0 0-2.199-1.326c-.049 0-.098.04-.098.092Zm0 5.718c-1.768 0-3.205-1.428-3.205-3.184 0-1.757 1.437-3.184 3.205-3.184 1.77 0 3.206 1.427 3.206 3.184a3.193 3.193 0 0 1-3.206 3.184Zm0-7.707c-2.511 0-4.548 2.024-4.548 4.523 0 2.5 2.037 4.518 4.548 4.518 2.512 0 4.549-2.023 4.549-4.523 0-2.5-2.032-4.518-4.549-4.518Z"/>
  <path fill="#79849A" d="M32.193 12.557c-3.131.014-3.131-2.514-3.131-2.917L29.057.168l1.91-.302v9.415c0 .229 0 1.675 1.226 1.68v1.596Zm-7.743-1.548c.586 0 1.021-.034 1.324-.092V8.986a4.545 4.545 0 0 0-1.124-.141c-.21 0-.426.014-.64.048-.215.03-.41.087-.582.17-.17.083-.313.2-.415.35-.107.15-.156.237-.156.465 0 .446.156.704.44.873.283.17.669.258 1.153.258Zm-.166-6.891c.63 0 1.162.078 1.592.233.43.155.777.373 1.03.65.26.281.436.655.543 1.053.113.398.166.835.166 1.315v4.883a23.12 23.12 0 0 1-1.333.222 13.94 13.94 0 0 1-2.009.131 6.14 6.14 0 0 1-1.353-.14 2.864 2.864 0 0 1-1.05-.451 2.193 2.193 0 0 1-.68-.806c-.16-.33-.244-.796-.244-1.281 0-.466.093-.762.274-1.083.185-.32.435-.582.748-.786.317-.204.678-.35 1.094-.436a6.315 6.315 0 0 1 1.964-.093c.23.025.479.069.743.131v-.31c0-.218-.025-.427-.078-.621a1.331 1.331 0 0 0-.274-.52 1.274 1.274 0 0 0-.518-.349 2.269 2.269 0 0 0-.816-.146c-.44 0-.84.054-1.207.117-.366.063-.67.136-.9.218l-.228-1.557a7.437 7.437 0 0 1 1.055-.248 7.88 7.88 0 0 1 1.48-.126Zm37.728 6.838c.586 0 1.02-.034 1.323-.093v-1.93a4.555 4.555 0 0 0-1.124-.141 3.983 3.983 0 0 0-.64.048c-.214.029-.41.087-.58.17a1.037 1.037 0 0 0-.416.349c-.108.15-.156.238-.156.466 0 .446.156.704.44.873.288.175.669.258 1.153.258ZM61.85 4.07c.63 0 1.163.077 1.593.232.43.156.776.374 1.03.65.255.277.435.656.543 1.054.112.398.166.834.166 1.315v4.882c-.293.063-.738.135-1.334.223a13.84 13.84 0 0 1-2.008.13 6.14 6.14 0 0 1-1.353-.14 2.865 2.865 0 0 1-1.05-.451 2.193 2.193 0 0 1-.68-.806c-.16-.33-.244-.796-.244-1.28 0-.467.093-.763.274-1.083.185-.32.434-.582.747-.786.318-.204.68-.35 1.095-.437a6.316 6.316 0 0 1 1.964-.092c.234.024.479.068.742.131v-.31c0-.22-.024-.428-.078-.622a1.328 1.328 0 0 0-.274-.52 1.274 1.274 0 0 0-.517-.348 2.271 2.271 0 0 0-.816-.146c-.44 0-.84.054-1.207.116-.367.064-.67.136-.9.219l-.228-1.558a7.462 7.462 0 0 1 1.055-.247 8.348 8.348 0 0 1 1.48-.126Zm-5.736-.903c.64 0 1.163-.515 1.163-1.15 0-.636-.518-1.15-1.163-1.15s-1.162.514-1.162 1.15c0 .635.522 1.15 1.162 1.15Zm.962 9.39h-1.92V4.365l1.92-.3v8.492Zm-3.366 0c-3.131.014-3.131-2.514-3.131-2.917L50.574.168l1.91-.302v9.415c0 .229 0 1.675 1.226 1.68v1.596ZM47.5 8.364c0-.82-.18-1.504-.532-1.98-.352-.48-.845-.718-1.476-.718-.63 0-1.124.238-1.475.718-.352.48-.523 1.16-.523 1.98 0 .83.176 1.388.528 1.868.352.486.845.724 1.476.724.63 0 1.123-.243 1.475-.724.352-.485.528-1.038.528-1.868Zm1.955-.004c0 .64-.093 1.125-.284 1.654-.19.529-.459.98-.805 1.354a3.56 3.56 0 0 1-1.252.869c-.488.203-1.24.32-1.616.32-.377-.005-1.124-.112-1.608-.32a3.64 3.64 0 0 1-1.246-.869 4.001 4.001 0 0 1-.811-1.354 4.482 4.482 0 0 1-.293-1.654c0-.641.088-1.258.283-1.782.196-.524.47-.97.821-1.344.352-.374.772-.66 1.25-.864a4.064 4.064 0 0 1 1.593-.3c.577 0 1.11.1 1.598.3.49.204.91.49 1.251.864.346.374.615.82.811 1.344.205.524.308 1.14.308 1.782Zm-14.379 0c0 .795.176 1.678.528 2.047.351.37.806.553 1.363.553.303 0 .591-.043.86-.126.269-.082.483-.18.655-.296V5.826a7.52 7.52 0 0 0-1.261-.16c-.694-.02-1.221.262-1.593.713-.366.452-.552 1.243-.552 1.98Zm5.31 3.745c0 1.296-.332 2.242-1.001 2.845-.669.6-1.69.902-3.068.902-.503 0-1.548-.097-2.384-.281l.307-1.505c.7.145 1.623.185 2.107.185.766 0 1.314-.155 1.64-.466.328-.31.49-.771.49-1.383v-.311a5.79 5.79 0 0 1-.748.282 3.73 3.73 0 0 1-1.065.14 4.014 4.014 0 0 1-1.441-.248 3.003 3.003 0 0 1-1.12-.728 3.319 3.319 0 0 1-.722-1.203c-.171-.48-.26-1.34-.26-1.97 0-.592.093-1.334.275-1.83a3.49 3.49 0 0 1 .806-1.276 3.707 3.707 0 0 1 1.285-.825 4.737 4.737 0 0 1 1.733-.325c.622 0 1.193.078 1.75.17.557.092 1.03.189 1.417.296v7.531Z"/>
</svg>
